X:1
T:Title
%%score 1 { 2 | 3 }
L:1/8
Q:1/4=155
M:3/2
K:E
V:1 treble nm="Grand Piano, Soprano"
V:2 bass nm="Choir Pad, Bass"
V:3 bass 
V:1
 E2 [EG]2 [EB]4 [EB]4 | [Ec]2 [EB]2 [EB]4 [EG]4 | [FB]2 [EG]2 [DF]2 [FB]2 [F^A]4 | [Ec]4 [DB]8 | %4
w: By~Lowell~Mason,~1863 * * *||||
 E2 [EG]2 [EB]4 [EB]4 | [Ec]2 [EB]2 [EB]4 [EG]4 | [FB]2 [EG]2 [DF]2 [FB]2 [F^A]4 | [Ec]4 [DB]8 | %8
w: ||||
 [EG]2 [EB]2 [Ec]4 [Ec]4 | [Ee]2 [Ec]2 [Ec]4 [EB]4 | [Ee]2 [Ec]2 [EB]2 [EA]2 [EG]4 | [DF]4 E8- | %12
w: ||||
 E4 z4 z4 |] %13
w: |
V:2
 E,2 E,2 G,4 G,4 | A,2 G,2 G,4 B,4 | B,2 B,2 B,2 B,2 C4 | ^A,4 B,8 | E,2 E,2 G,4 G,4 | %5
 A,2 G,2 G,4 B,4 | B,2 B,2 B,2 B,2 C4 | ^A,4 B,8 | E,2 E,2 A,4 A,4 | C2 A,2 A,4 G,4 | %10
 C2 A,2 E,2 C2 B,4 | A,4 G,8- | G,4 z4 z4 |] %13
V:3
 z4 E,4 E,4 | E,2 E,2 E,4 E,4 | D,2 E,2 B,,2 D,2 F,4 | F,4 B,,8 | z4 E,4 E,4 | E,2 E,2 E,4 E,4 | %6
 D,2 E,2 B,,2 D,2 F,4 | F,4 B,,8 | z4 A,,4 A,,4 | A,,2 C,2 E,4 E,4 | A,,2 C,2 z2 A,,2 B,,4 | %11
 B,,4 E,8- | E,4 z4 z4 |] %13

